assets/icons/utility/multi_picklist.svg

<?xml version="1.0"?><svg xmlns="http://www.w3.org/2000/svg" width="52" height="52" viewBox="0 0 52 52"><path fill="#fff" d="m44.4 2h-25.6c-2.6 0-4.8 2.2-4.8 4.8v0.8c0 0.5 0.3 0.8 0.8 0.8h23.2c2.6 0 4.8 2.2 4.8 4.8v24.8c0 0.5 0.3 0.8 0.8 0.8h0.8c2.6 0 4.8-2.2 4.8-4.8v-27.2c0-2.6-2.2-4.8-4.8-4.8z m-11.2 11.2h-25.6c-2.6 0-4.8 2.2-4.8 4.8v27.2c0 2.6 2.2 4.8 4.8 4.8h25.6c2.6 0 4.8-2.2 4.8-4.8v-27.2c0-2.6-2.2-4.8-4.8-4.8z m-19.2 28.8c0 0.9-0.7 1.6-1.6 1.6h-1.6c-0.9 0-1.6-0.7-1.6-1.6v-1.6c0-0.9 0.7-1.6 1.6-1.6h1.6c0.9 0 1.6 0.7 1.6 1.6v1.6z m0-9.6c0 0.9-0.7 1.6-1.6 1.6h-1.6c-0.9 0-1.6-0.7-1.6-1.6v-1.6c0-0.9 0.7-1.6 1.6-1.6h1.6c0.9 0 1.6 0.7 1.6 1.6v1.6z m0-9.6c0 0.9-0.7 1.6-1.6 1.6h-1.6c-0.9 0-1.6-0.7-1.6-1.6v-1.6c0-0.9 0.7-1.6 1.6-1.6h1.6c0.9 0 1.6 0.7 1.6 1.6v1.6z m17.6 19.2c0 0.9-0.7 1.6-1.6 1.6h-11.1c-0.9 0-1.6-0.7-1.6-1.6v-1.6c0-0.9 0.7-1.6 1.6-1.6h11.1c0.9 0 1.6 0.7 1.6 1.6v1.6z m0-9.6c0 0.9-0.7 1.6-1.6 1.6h-11.1c-0.9 0-1.6-0.7-1.6-1.6v-1.6c0-0.9 0.7-1.6 1.6-1.6h11.1c0.9 0 1.6 0.7 1.6 1.6v1.6z m0-9.6c0 0.9-0.7 1.6-1.6 1.6h-11.1c-0.9 0-1.6-0.7-1.6-1.6v-1.6c0-0.9 0.7-1.6 1.6-1.6h11.1c0.9 0 1.6 0.7 1.6 1.6v1.6z"></path></svg>

<svg xmlns="http://www.w3.org/2000/svg" x="0px" y="0px"
	 width="52px" height="52px" viewBox="0 0 52 52" enable-background="new 0 0 52 52" xml:space="preserve">
<path fill="#FFFFFF" d="M44.4,2H18.8C16.2,2,14,4.2,14,6.8v0.8c0,0.5,0.3,0.8,0.8,0.8H38c2.6,0,4.8,2.2,4.8,4.8V38
	c0,0.5,0.3,0.8,0.8,0.8h0.8c2.6,0,4.8-2.2,4.8-4.8V6.8C49.2,4.2,47,2,44.4,2z"/>
<path fill="#FFFFFF" d="M33.2,13.2H7.6c-2.6,0-4.8,2.2-4.8,4.8v27.2C2.8,47.8,5,50,7.6,50h25.6c2.6,0,4.8-2.2,4.8-4.8V18
	C38,15.4,35.8,13.2,33.2,13.2z M14,42c0,0.9-0.7,1.6-1.6,1.6h-1.6c-0.9,0-1.6-0.7-1.6-1.6v-1.6c0-0.9,0.7-1.6,1.6-1.6h1.6
	c0.9,0,1.6,0.7,1.6,1.6V42z M14,32.4c0,0.9-0.7,1.6-1.6,1.6h-1.6c-0.9,0-1.6-0.7-1.6-1.6v-1.6c0-0.9,0.7-1.6,1.6-1.6h1.6
	c0.9,0,1.6,0.7,1.6,1.6V32.4z M14,22.8c0,0.9-0.7,1.6-1.6,1.6h-1.6c-0.9,0-1.6-0.7-1.6-1.6v-1.6c0-0.9,0.7-1.6,1.6-1.6h1.6
	c0.9,0,1.6,0.7,1.6,1.6V22.8z M31.6,42c0,0.9-0.7,1.6-1.6,1.6H18.9c-0.9,0-1.6-0.7-1.6-1.6v-1.6c0-0.9,0.7-1.6,1.6-1.6H30
	c0.9,0,1.6,0.7,1.6,1.6V42z M31.6,32.4c0,0.9-0.7,1.6-1.6,1.6H18.9c-0.9,0-1.6-0.7-1.6-1.6v-1.6c0-0.9,0.7-1.6,1.6-1.6H30
	c0.9,0,1.6,0.7,1.6,1.6V32.4z M31.6,22.8c0,0.9-0.7,1.6-1.6,1.6H18.9c-0.9,0-1.6-0.7-1.6-1.6v-1.6c0-0.9,0.7-1.6,1.6-1.6H30
	c0.9,0,1.6,0.7,1.6,1.6V22.8z"/>
</svg>
